assets/icons/settings-icon.svg

<svg xmlns="http://www.w3.org/2000/svg" viewBox="0 0 24 24"><path d="M12,8A4,4 0 0,1 16,12A4,4 0 0,1 12,16A4,4 0 0,1 8,12A4,4 0 0,1 12,8M12,10A2,2 0 0,0 10,12A2,2 0 0,0 12,14A2,2 0 0,0 14,12A2,2 0 0,0 12,10M10,22C9.75,22 9.54,21.82 9.5,21.58L9.13,18.93C8.5,18.68 7.96,18.34 7.44,17.94L4.95,18.95C4.73,19.03 4.46,18.95 4.34,18.73L2.34,15.27C2.21,15.05 2.27,14.78 2.46,14.63L4.57,12.97L4.5,12L4.57,11L2.46,9.37C2.27,9.22 2.21,8.95 2.34,8.73L4.34,5.27C4.46,5.05 4.73,4.96 4.95,5.05L7.44,6.05C7.96,5.66 8.5,5.32 9.13,5.07L9.5,2.42C9.54,2.18 9.75,2 10,2H14C14.25,2 14.46,2.18 14.5,2.42L14.87,5.07C15.5,5.32 16.04,5.66 16.56,6.05L19.05,5.05C19.27,4.96 19.54,5.05 19.66,5.27L21.66,8.73C21.79,8.95 21.73,9.22 21.54,9.37L19.43,11L19.5,12L19.43,13L21.54,14.63C21.73,14.78 21.79,15.05 21.66,15.27L19.66,18.73C19.54,18.95 19.27,19.04 19.05,18.95L16.56,17.95C16.04,18.34 15.5,18.68 14.87,18.93L14.5,21.58C14.46,21.82 14.25,22 14,22H10M11.25,4L10.88,6.61C9.68,6.86 8.62,7.5 7.85,8.39L5.44,7.35L4.69,8.65L6.8,10.2C6.4,11.37 6.4,12.64 6.8,13.8L4.68,15.36L5.43,16.66L7.86,15.62C8.63,16.5 9.68,17.14 10.87,17.38L11.24,20H12.76L13.13,17.39C14.32,17.14 15.37,16.5 16.14,15.62L18.57,16.66L19.32,15.36L17.2,13.81C17.6,12.64 17.6,11.37 17.2,10.2L19.31,8.65L18.56,7.35L16.15,8.39C15.38,7.5 14.32,6.86 13.12,6.62L12.75,4H11.25Z" /></svg>

<?xml version="1.0" encoding="utf-8"?>
<!-- Generator: Adobe Illustrator 25.4.1, SVG Export Plug-In . SVG Version: 6.00 Build 0)  -->
<svg version="1.1" id="Layer_1" xmlns="http://www.w3.org/2000/svg" xmlns:xlink="http://www.w3.org/1999/xlink" x="0px" y="0px"
	 viewBox="0 0 24 24" style="enable-background:new 0 0 24 24;" xml:space="preserve">
<style type="text/css">
	.st0{fill:#FFFFFF;}
</style>
<path class="st0" d="M12,8c2.2,0,4,1.8,4,4s-1.8,4-4,4s-4-1.8-4-4S9.8,8,12,8 M12,10c-1.1,0-2,0.9-2,2s0.9,2,2,2s2-0.9,2-2
	S13.1,10,12,10 M10,22c-0.2,0-0.5-0.2-0.5-0.4l-0.4-2.6c-0.6-0.2-1.2-0.6-1.7-1l-2.5,1c-0.2,0.1-0.5,0-0.6-0.2l-2-3.5
	c-0.1-0.2-0.1-0.5,0.1-0.6L4.6,13l-0.1-1l0.1-1L2.5,9.4C2.3,9.2,2.2,8.9,2.3,8.7l2-3.5C4.5,5.1,4.7,5,4.9,5.1l2.5,1
	c0.5-0.4,1.1-0.7,1.7-1l0.4-2.7C9.5,2.2,9.8,2,10,2h4c0.2,0,0.5,0.2,0.5,0.4l0.4,2.7c0.6,0.2,1.2,0.6,1.7,1l2.5-1
	c0.2-0.1,0.5,0,0.6,0.2l2,3.5c0.1,0.2,0.1,0.5-0.1,0.6L19.4,11l0.1,1l-0.1,1l2.1,1.6c0.2,0.1,0.2,0.4,0.1,0.6l-2,3.5
	C19.5,19,19.3,19,19,19l-2.5-1c-0.5,0.4-1.1,0.7-1.7,1l-0.4,2.6c0,0.2-0.2,0.4-0.5,0.4H10 M11.2,4l-0.4,2.6c-1.2,0.2-2.3,0.9-3,1.8
	l-2.4-1L4.7,8.6l2.1,1.6c-0.4,1.2-0.4,2.4,0,3.6l-2.1,1.6l0.8,1.3l2.4-1c0.8,0.9,1.8,1.5,3,1.8l0.4,2.6h1.5l0.4-2.6
	c1.2-0.2,2.2-0.9,3-1.8l2.4,1l0.8-1.3l-2.1-1.5c0.4-1.2,0.4-2.4,0-3.6l2.1-1.6l-0.8-1.3l-2.4,1c-0.8-0.9-1.8-1.5-3-1.8L12.8,4H11.2z
	"/>
</svg>
